!!!!SEGMENT: pl-sa--l-1636--091_anonim--witam-witam-krolowa-niebieska.krn
!!!cenid: 17xx:798
!!!COM: Anonim
!!!COM-rismID: pe30004985
!!!CDT:
!!!CNT:
!!!OTL: Witam Witam Królowa Niebieska
!!!PDT:
!!!AGN: Sacred
!!!SMS-siglum: PL-SA
!!!SMS-shelfmark: L 1636
!!!SMS-shelfwork: 091 W
!!!SMS-variant:
!!!SMS-altvar:
!!!NIFC-rismSourceID: 1001087438
!!!NIFC-rismChildID: 1001087438
!!!NIFC-islandoraID:
!!!URL-pdf-islandora:
!!!URL-scan:
!!!ONB-nifc: 43v, skan 0039, s. 1-3
!!!AIN: 2 empty
!!!key:
**kern	**kern	**text
*part2	*part1	*part1
*staff2	*staff1	*staff1
*Iempty	*Iempty	*
*I"	*I"	*
*clefF4	*clefC1	*
*k[]	*k[]	*
*d:	*d:	*
*M3/2	*M3/2	*
=1	=1	=1
*	*2\right	*
*^	*^	*
!	!	!	!	!LO:SIC:o:s:=:v:all\right
2D/	2DD/	2a/ 2f/	2d\	Wi-
2A/ 2F/	2AA/	2cc/ 2a/	2e\	-tam
2E/	2EE/	2b/ 2g#X/	2e\	Wi-
=2	=2	=2	=2	=2
1F/	4FF\	1a/ 1f/	1c\	-tam
.	4GG\	.	.	.
.	4AA\	.	.	.
.	4BB-X\	.	.	.
2ryy	4C\	4g/	2e\	Kró-
.	4C#X\	4a/	.	-lo-
*v	*v	*	*	*
=3	=3	=3	=3
4D/	1f/	1d\	-wa
4C/	.	.	.
4BB-X/	.	.	.
4AA/	.	.	.
4GG/	2g/	4B\	Nie-
4AA/	.	4c#X\	.
=4	=4	=4	=4
4BB-X/	2f/	2d\	-bie-
4FF/	.	.	.
4GG/	1e/	2d\	-ska
4EE/	.	.	.
4AA/	.	2c#X\	.
4C#X/	.	.	.
*	*v	*v	*
=5	=5	=5
1.D/ 1.AA/ 1.DD/	1.d/ 1.A/	.
=6||	=6||	=6||
*^	*^	*
1A/	1.AA\	1e/	1c#X\	.
2C#X/	.	4g/	2e\	.
.	.	4a/	.	.
*v	*v	*	*	*
!!LO:LB:g=original
=7	=7	=7	=7
4D\	1f/	1d\	.
4E\	.	.	.
4F\	.	.	.
4G\	.	.	.
2A\	2e/	2c#X\	.
=8	=8	=8	=8
4AA/	1e/	1c\	.
4A\	.	.	.
4G\	.	.	.
4F\	.	.	.
4E\	4g/	2e\	.
4C#X\	4a/	.	.
=9	=9	=9	=9
4D/	1f/	1d\	.
4C/	.	.	.
4BB-X/	.	.	.
4GG/	.	.	.
2AA/	2e/	2c#X\	.
=10	=10	=10	=10
*^	*	*	*
1A/	1AA\	1a/	1e\ 1cn\	.
2E/	2EE\	2b/	2g#X\ 2e\	.
=11	=11	=11	=11	=11
4A\	1ryy	1cc/ 1a/	1e\	.
8AA/L	.	.	.	.
8BB/J	.	.	.	.
4C/	.	.	.	.
4D/	.	.	.	.
2E/	2EE\	2b/ 2g#X/	2e\	.
*v	*v	*	*	*
=12	=12	=12	=12
4F\	1a/	1f\ 1c\	.
4FF/	.	.	.
4AA/	.	.	.
4GG/	.	.	.
4AA/	2a/	2f\ 2c\	.
4BB/	.	.	.
=13	=13	=13	=13
4C/	1g/	1e\	.
4D/	.	.	.
4E\	.	.	.
4F\	.	.	.
4E\	4g/	2e\	.
4C#X\	4a/	.	.
!!LO:LB:g=original
=14	=14	=14	=14
4D/	1f/	1d\	.
4C/	.	.	.
4BB-X/	.	.	.
4AA/	.	.	.
4GG/	2g/	4B\	.
4AA/	.	4c#X\	.
=15	=15	=15	=15
4BB-X/	2f/	2d\	.
4FF/	.	.	.
!	!LO:SIC:o:s:=:v:zamazane dźwięki	!	!
4GG/	2.ryy	4d\	.
4EE/	.	8c\L	.
.	.	8B\J	.
!	!LO:TX:a:t=P:problem=# przed ósemką	!	!
2AA/	.	2c#X\	.
.	4g/	.	.
*	*v	*v	*
=16	=16	=16
1.D/ 1.AA/ 1.DD/	1.f#X/ 1.d/ 1.A/	.
==	==	==
*-	*-	*-
!!!system-decoration: [(s1,s2)]
!!!EED: Leszek Kubiak
!!!EEV: 2020-12-09
!!!ENC: Marta Chmielewska
!!!END: 2020-06-12
!!!YEC: Copyright 2022 Narodowy Instytut Fryderyka Chopina (https://polishscores.org)
!!!YEM: License CC-BY-4.0 (https://creativecommons.org/licenses/by/4.0)
